X: 42154
T: Water Is Wide, The
R: waltz
M: 3/4
K: Gmajor
D2 G2 GA|B4 AA|G2 E2 HD2|D2 G2 F2|G6|A2 B2 cB|A6|
G2 A2 Bc|d4 c2|B4 AG|B6|A2 G2 E2|D4 D2|D4 EF|G6|

